X:1
T:The celebrated chop waltz
T:The Celebrated Chop Waltz
T:Euphemia Allen
C:Euphemia Allen
%%score { 1 | 2 }
L:1/8
Q:1/4=240
M:3/4
K:C
V:1 treble nm="Piano" snm="Pno."
V:2 bass 
V:1
!p! [fg]2 [fg]2 [fg]2 | [fg]2 [fg]2 [fg]2 | [eg]2 [eg]2 [eg]2 | [eg]2 [eg]2 [eg]2 | %4
 [db]2 [db]2 [db]2 | [db]2 [db]2 [db]2 | [cc']2 [cc']2 [cc']2 | [cc']2 [db]2 [ea]2 | %8
 [fg]2 [fg]2 [fg]2 | [fg]2 [fg]2 [fg]2 | [eg]2 [eg]2 [eg]2 | [eg]2 [eg]2 [eg]2 | %12
 [db]2 [db]2 [db]2 | [db]2 [db]2 [db]2 | c'2 g2 e2 | c2 z2!f! [c'e']2!fine! |] [bd']2 z2 [ac']2 | %17
 [gb]2 z2 [fa]2 | [eg]2 z2 [c'e']2 | [c'e']2 z2 [eg]2 | [df]2 z2 [bd']2 | [bd']2 z2 [df]2 | %22
 [ce]2 z2 [ec']2 | [ec']2 z2 [c'e']2 | [bd']2 z2 [ac']2 | [gb]2 z2 [fa]2 | [eg]2 z2 [c'e']2 | %27
 [c'e']2 z2 [eg]2 | [df]2 z2 [bd']2 | [bd']2 z2 b2 | c'2 g2 e2 | c2 z4 |!p! fg fg fg | fg fg fg | %34
 eg eg eg | eg eg eg | db db db | db db db | cc' cc' cc' | cc' db ea | fg fg fg | fg fg fg | %42
 eg eg eg | eg eg eg | db db db | db db db | c'2 g2 e2 | c2 z2!f! [c'e']2 | [bd']2 z2 [ac']2 | %49
 [gb]2 z2 [fa]2 | [eg]2 !-(!g4 |!8va(! !-)!g''2!8va)! z2 [eg]2 | [df]2 !-(!f4 | %53
!8va(! !-)!f''2!8va)! z2 [df]2 | [ce]2 !-(!e4 |!8va(! !-)!e''2!8va)! z2 [c'e']2 | %56
 [bd']2 z2 [ac']2 | [gb]2 z2 [fa]2 | [eg]2 !-(!g4 |!8va(! !-)!g''2!8va)! z2 [eg]2 | [df]2 !-(!f4 | %61
!8va(! !-)!f''2!8va)! z2 b2 | c'2 g2 e2 | c2 z4!D.C.! |] %64
V:2
 G,2 [B,DF]2 [B,DF]2 | G,2 [B,DF]2 [B,DF]2 | C,2 [G,CE]2 [G,CE]2 | C,2 [G,CE]2 [G,CE]2 | %4
 G,2 [B,DF]2 [B,DF]2 | G,2 [B,DF]2 [B,DF]2 | C,2 [G,CE]2 [G,CE]2 | C,2 [G,CE]2 [G,CE]2 | %8
 G,2 [B,DF]2 [B,DF]2 | G,2 [B,DF]2 [B,DF]2 | C,2 [G,CE]2 [G,CE]2 | C,2 [G,CE]2 [G,CE]2 | %12
 G,2 [B,DF]2 [B,DF]2 | G,2 [B,DF]2 [B,DF]2 | C,2 [G,CE]2 [G,CE]2 | [C,C]2 z4 |] %16
 G,2 [B,DF]2 [B,DF]2 | G,2 [B,DF]2 [B,DF]2 | C,2 [G,CE]2 [G,CE]2 | C,2 [G,CE]2 [G,CE]2 | %20
 G,2 [B,DF]2 [B,DF]2 | G,2 [B,DF]2 [B,DF]2 | C,2 [G,CE]2 [G,CE]2 | C,2 [G,CE]2 [G,CE]2 | %24
 G,2 [B,DF]2 [B,DF]2 | G,2 [B,DF]2 [B,DF]2 | C,2 [G,CE]2 [G,CE]2 | C,2 [G,CE]2 [G,CE]2 | %28
 G,2 [B,DF]2 [B,DF]2 | G,2 [B,DF]2 [B,DF]2 | C,2 [G,CE]2 [G,CE]2 | [C,C]2 z4 | %32
 G,2 [B,DF]2 [B,DF]2 | G,2 [B,DF]2 [B,DF]2 | C,2 [G,CE]2 [G,CE]2 | C,2 [G,CE]2 [G,CE]2 | %36
 G,2 [B,DF]2 [B,DF]2 | G,2 [B,DF]2 [B,DF]2 | C,2 [G,CE]2 [G,CE]2 | C,2 [G,CE]2 [G,CE]2 | %40
 G,2 [B,DF]2 [B,DF]2 | G,2 [B,DF]2 [B,DF]2 | C,2 [G,CE]2 [G,CE]2 | C,2 [G,CE]2 [G,CE]2 | %44
 G,2 [B,DF]2 [B,DF]2 | G,2 [B,DF]2 [B,DF]2 | C,2 [G,CE]2 [G,CE]2 | [C,C]2 z4 | %48
 G,2 [B,DF]2 [B,DF]2 | G,2 [B,DF]2 [B,DF]2 | C,2 [G,CE]2 [G,CE]2 | C,2 [G,CE]2 [G,CE]2 | %52
 G,2 [B,DF]2 [B,DF]2 | G,2 [B,DF]2 [B,DF]2 | C,2 [G,CE]2 [G,CE]2 | C,2 [G,CE]2 [G,CE]2 | %56
 G,2 [B,DF]2 [B,DF]2 | G,2 [B,DF]2 [B,DF]2 | C,2 [G,CE]2 [G,CE]2 | C,2 [G,CE]2 [G,CE]2 | %60
 G,2 [B,DF]2 [B,DF]2 | G,2 [B,DF]2 [B,DF]2 | C,2 [G,CE]2 [G,CE]2 | [C,C]2 z4 |] %64

